icons/article-fill.svg

<svg xmlns="http://www.w3.org/2000/svg" width="24" height="24" fill="none"><g clip-path="url(#a)"><g><path fill="#121212" d="M20 22H4C3.73478 22 3.48043 21.8946 3.29289 21.7071C3.10536 21.5196 3 21.2652 3 21V3C3 2.73478 3.10536 2.48043 3.29289 2.29289C3.48043 2.10536 3.73478 2 4 2H20C20.2652 2 20.5196 2.10536 20.7071 2.29289C20.8946 2.48043 21 2.73478 21 3V21C21 21.2652 20.8946 21.5196 20.7071 21.7071C20.5196 21.8946 20.2652 22 20 22ZM7 6V10H11V6H7ZM7 12V14H17V12H7ZM7 16V18H17V16H7ZM13 7V9H17V7H13Z"/></g></g><defs><clipPath id="a"><rect width="24" height="24" fill="white"/></clipPath></defs></svg>

<svg width="24" height="24" fill="none" xmlns="http://www.w3.org/2000/svg"><g clip-path="url(#a)"><path d="M20 22H4a1 1 0 0 1-1-1V3a1 1 0 0 1 1-1h16a1 1 0 0 1 1 1v18a1 1 0 0 1-1 1ZM7 6v4h4V6H7Zm0 6v2h10v-2H7Zm0 4v2h10v-2H7Zm6-9v2h4V7h-4Z" /></g><defs><clipPath id="a"><path fill="#fff" d="M0 0h24v24H0z"/></clipPath></defs></svg>
